X: 1
T: Flowers of the Thorn (Blodau'r Drain)
R: waltz
C: Wales
M: 3/4
L: 1/8
Z:SG
K: Am
E2 | "Am"A4 B2 | c2 B2 A2 |"Dm" e2 dc BA | "E7"B4 E2|
 "Am"A2 Ac "E"Bd | "Am"c2 B2 A2 | "E7"^G2 GB "Am"Ac | "E7"B4  E2|
  "Am"A4 B2 | c2 B2 A2 |"Dm" e2 dc BA | "E7"B4 E2|
 "Am"A2 Ac "E"Bd | "Am"c2 B2 A2 | "E7"^G2 GB "Am"Ac | "E"B4 B2||
"C" c4 c2 | "G"d4 d2 | "C"e2 e2 "F"f2 | "C"e4 "G7"d2|
 "C"cB cd c2 | "G7"dc de d2 | "C"ed ef ef | "G7"g3 fed |
 "C"cB cd ec | "G"dc de fd | "Am"e2 e2 a2 | "E7"^g4 b2|
 "Am"a2 e2 c2 | "Dm"f2 e2 d2 | "E7"c2 dc Bc | "Am"A4 |]
